svgs/sharp-regular/bed-front.svg

<svg xmlns="http://www.w3.org/2000/svg" viewBox="0 0 512 512"><!--! Font Awesome Pro 6.6.0 by @fontawesome - https://fontawesome.com License - https://fontawesome.com/license (Commercial License) Copyright 2024 Fonticons, Inc. --><path d="M32 32l0 160 48 0 0-64 160 0 0 64 32 0 0-64 160 0 0 64 48 0 0-160L32 32zM24 224L0 224l0 24L0 392l0 64 0 24 48 0 0-24 0-40 416 0 0 40 0 24 48 0 0-24 0-64 0-144 0-24-24 0L24 224zM464 368L48 368l0-96 416 0 0 96z"/></svg>

<svg xmlns="http://www.w3.org/2000/svg" viewBox="0 0 512 512"><!--! Font Awesome Pro 6.5.2 by @fontawesome - https://fontawesome.com License - https://fontawesome.com/license (Commercial License) Copyright 2024 Fonticons, Inc. --><path d="M32 32V192H80V128H240v64h32V128H432v64h48V32H32zM24 224H0v24V392v64 24H48V456 416H464v40 24h48V456 392 248 224H488 24zM464 368H48V272H464v96z"/></svg>
